;Generated by Cura LulzBot Edition GCodeWriter Version: 3.6.22
;FLAVOR:Marlin
;TIME:5100
;Filament used: 4.81458m
;Layer height: 0.38
;Generated with Cura_SteamEngine 3.6.22
M82 ;absolute extrusion mode
;This G-Code has been generated specifically for the LulzBot Mini with standard extruder
M73 P0 ; clear GLCD progress bar
M75 ; Start GLCD Timer
G26 ; clear potential 'probe fail' condition
M107 ; disable fans
M420 S0 ; disable leveling matrix
G90 ; absolute positioning
M82 ; set extruder to absolute mode
G92 E0 ; set extruder position to 0
M140 S110.0 ; start bed heating up
G28 ; home all axes
G0 X0 Y187 Z156 F200 ; move away from endstops
M109 R175 ;
G1 E-30 F75 ; retract filament
M109 R170 ; wait for extruder to reach wiping temp
G1 X45 Y173 F11520 ; move above wiper pad
G1 Z0 F1200 ; push nozzle into wiper
G1 X42 Y173 Z-.5 F4000             ; wiping
G1 X52 Y171 Z-.5 F4000             ; wiping
G1 X42 Y173 Z0 F4000               ; wiping
G1 X52 Y171 F4000                  ; wiping
G1 X42 Y173 F4000                  ; wiping
G1 X52 Y171 F4000                  ; wiping
G1 X42 Y173 F4000                  ; wiping
G1 X52 Y171 F4000                  ; wiping
G1 X57 Y173 F4000                  ; wiping
G1 X77 Y171 F4000                  ; wiping
G1 X57 Y173 F4000                  ; wiping
G1 X77 Y171 F4000                  ; wiping
G1 X57 Y173 F4000                  ; wiping
G1 X87 Y171 F4000                  ; wiping
G1 X77 Y173 F4000                  ; wiping
G1 X97 Y171 F4000                  ; wiping
G1 X77 Y173 F4000                  ; wiping
G1 X97 Y171 F4000                  ; wiping
G1 X77 Y173 F4000                  ; wiping
G1 X97 Y171 F4000                  ; wiping
G1 X107 Y173 F4000                 ; wiping
G1 X97 Y171 F4000                  ; wiping
G1 X107 Y173 F4000                 ; wiping
G1 X97 Y171 F4000                  ; wiping
G1 X107 Y173 F4000                 ; wiping
G1 X112 Y171 Z-0.5 F1000           ; wiping
G1 Z10 ; raise extruder
G28 X0 Y0 ; home X and Y
G0 X0 Y187 F200 ; move away from endstops
M109 R170 ; wait for extruder to reach probe temp
M204 S300 ; set probing acceleration
G29       ; start auto-leveling sequence
M420 S1   ; enable leveling matrix
M425 Z	  ; use measured Z backlash for compensation
M425 Z F0 ; turn off measured Z backlash compensation. (if activated in the quality settings, this command will automatically be ignored)
M204 S2000 ; restore standard acceleration
G28 X0 Y0 ; re-home to account for build variance of earlier mini builds
G0 X0 Y187 F200 ; move away from endstops
G0 Y152 F4000 ; move in front of wiper pad
G4 S1 ; pause
M400 ; wait for moves to finish
M117 Heating... ; progress indicator message on LCD
M109 R245  ; wait for extruder to reach printing temp
M190 R110.0 ; wait for bed to reach printing temp
G1 Z2 E0 F75 ; prime tiny bit of filament into the nozzle
M117 Mini Printing... ; progress indicator message on LCD

M221 S100 T0
G92 E0
G1 F600 E-1
;LAYER_COUNT:74
;LAYER:-5
M107
G0 F10500 X47.241 Y47.352 Z0.51
;TYPE:SUPPORT-INTERFACE
G1 F600 E0
G1 F1350 X47.474 Y47.13 E0.02573
G1 X47.709 Y46.951 E0.04934
G1 X47.811 Y46.897 E0.05857
G1 X47.978 Y46.823 E0.07317
G1 X48.094 Y46.788 E0.08286
G1 X48.278 Y46.747 E0.09793
G1 X48.608 Y46.725 E0.12437
G1 X105.377 Y46.725 E4.66276
G1 X105.692 Y46.745 E4.688
G1 X105.862 Y46.774 E4.70178
G1 X106.148 Y46.875 E4.72603
G1 X106.405 Y47.028 E4.74994
G1 X106.648 Y47.241 E4.77577
G1 X106.87 Y47.474 E4.8015
G1 X107.048 Y47.708 E4.82501
G1 X107.103 Y47.811 E4.83434
G1 X107.181 Y47.986 E4.84966
G1 X107.253 Y48.276 E4.87355
G1 X107.275 Y48.606 E4.89999
G1 X107.275 Y105.382 E9.43894
G1 X107.255 Y105.691 E9.46369
G1 X107.226 Y105.862 E9.47756
G1 X107.125 Y106.148 E9.50181
G1 X106.972 Y106.405 E9.52572
G1 X106.759 Y106.648 E9.55155
G1 X106.526 Y106.87 E9.57728
G1 X106.291 Y107.049 E9.60089
G1 X106.186 Y107.104 E9.61037
G1 X106.022 Y107.177 E9.62472
G1 X105.906 Y107.212 E9.63441
G1 X105.722 Y107.253 E9.64948
G1 X105.392 Y107.275 E9.67592
G1 X48.623 Y107.275 E14.21431
G1 X48.308 Y107.255 E14.23954
G1 X48.138 Y107.226 E14.25333
G1 X47.849 Y107.124 E14.27783
G1 X47.595 Y106.972 E14.30149
G1 X47.352 Y106.759 E14.32733
G1 X47.129 Y106.525 E14.35317
G1 X47.042 Y106.418 E14.36419
G1 X46.951 Y106.29 E14.37675
G1 X46.89 Y106.175 E14.38716
G1 X46.823 Y106.024 E14.40036
G1 X46.788 Y105.906 E14.4102
G1 X46.747 Y105.722 E14.42527
G1 X46.725 Y105.394 E14.45155
G1 X46.725 Y48.618 E18.9905
G1 X46.748 Y48.287 E19.01703
G1 X46.775 Y48.135 E19.02937
G1 X46.877 Y47.848 E19.05372
G1 X46.936 Y47.74 E19.06356
G1 X47.028 Y47.595 E19.07729
G1 X47.241 Y47.352 E19.10312
G0 F10500 X48 Y46.816
G1 F1350 X48 Y107.177 E23.92867
G0 F10500 X50 Y107.275
G1 F1350 X50 Y46.725 E28.76934
G0 F10500 X52 Y46.725
G1 F1350 X52 Y107.275 E33.61
G0 F10500 X54 Y107.275
G1 F1350 X54 Y46.725 E38.45066
G0 F10500 X56 Y46.725
G1 F1350 X56 Y107.275 E43.29132
G0 F10500 X58 Y107.275
G1 F1350 X58 Y46.725 E48.13198
G0 F10500 X60 Y46.725
G1 F1350 X60 Y107.275 E52.97264
G0 F10500 X62 Y107.275
G1 F1350 X62 Y46.725 E57.81331
G0 F10500 X64 Y46.725
G1 F1350 X64 Y107.275 E62.65397
G0 F10500 X66 Y107.275
G1 F1350 X66 Y46.725 E67.49463
G0 F10500 X68 Y46.725
G1 F1350 X68 Y107.275 E72.33529
G0 F10500 X70 Y107.275
G1 F1350 X70 Y46.725 E77.17595
G0 F10500 X72 Y46.725
G1 F1350 X72 Y107.275 E82.01661
G0 F10500 X74 Y107.275
G1 F1350 X74 Y46.725 E86.85727
G0 F10500 X76 Y46.725
G1 F1350 X76 Y107.275 E91.69794
G0 F10500 X78 Y107.275
G1 F1350 X78 Y46.725 E96.5386
G0 F10500 X80 Y46.725
G1 F1350 X80 Y107.275 E101.37926
G0 F10500 X82 Y107.275
G1 F1350 X82 Y46.725 E106.21992
G0 F10500 X84 Y46.725
G1 F1350 X84 Y107.275 E111.06058
G0 F10500 X86 Y107.275
G1 F1350 X86 Y46.725 E115.90124
G0 F10500 X88 Y46.725
G1 F1350 X88 Y107.275 E120.74191
G0 F10500 X90 Y107.275
G1 F1350 X90 Y46.725 E125.58257
G0 F10500 X92 Y46.725
G1 F1350 X92 Y107.275 E130.42323
G0 F10500 X94 Y107.275
G1 F1350 X94 Y46.725 E135.26389
G0 F10500 X96 Y46.725
G1 F1350 X96 Y107.275 E140.10455
G0 F10500 X98 Y107.275
G1 F1350 X98 Y46.725 E144.94521
G0 F10500 X100 Y46.725
G1 F1350 X100 Y107.275 E149.78588
G0 F10500 X102 Y107.275
G1 F1350 X102 Y46.725 E154.62654
G0 F10500 X104 Y46.725
G1 F1350 X104 Y107.275 E159.4672
G0 F10500 X106 Y107.184
M104 S240
G1 F1350 X106 Y46.823 E164.29275
G0 F10500 X47.156 Y106.553
;TIME_ELAPSED:99.748565
;LAYER:-4
M140 S110
M221 S100 T0
G0 X47.156 Y106.553 Z1.08
;TYPE:SUPPORT
G1 F1350 X47.428 Y106.825 E164.32712
G1 X47.351 Y106.758 E164.33624
G0 F10500 X47.428 Y106.825
G1 F1350 X47.595 Y106.971 E164.35606
G1 X47.849 Y107.123 E164.38251
G1 X48.137 Y107.224 E164.40978
G1 X48.308 Y107.253 E164.42527
G1 X48.622 Y107.274 E164.45339
G1 X49.574 Y107.274 E164.53845
G1 X46.724 Y104.424 E164.89858
G1 X46.724 Y102.727 E165.05021
G1 X51.271 Y107.274 E165.62477
G1 X52.968 Y107.274 E165.7764
G1 X46.724 Y101.03 E166.56539
G1 X46.724 Y99.333 E166.71702
G1 X54.665 Y107.274 E167.72044
G1 X56.362 Y107.274 E167.87207
G1 X46.724 Y97.636 E169.08993
G1 X46.724 Y95.939 E169.24156
G1 X58.059 Y107.274 E170.67385
G1 X59.756 Y107.274 E170.82548
G1 X46.724 Y94.242 E172.4722
G1 X46.724 Y92.545 E172.62383
G1 X61.453 Y107.274 E174.48499
G1 X63.15 Y107.274 E174.63661
G1 X46.724 Y90.848 E176.71221
G1 X46.724 Y89.151 E176.86383
G1 X64.848 Y107.274 E179.15392
G1 X66.545 Y107.274 E179.30555
G1 X46.724 Y87.454 E181.81007
G1 X46.724 Y85.757 E181.9617
G1 X68.242 Y107.274 E184.68066
G1 X69.939 Y107.274 E184.83228
G1 X46.724 Y84.06 E187.76567
G1 X46.724 Y82.363 E187.9173
G1 X71.636 Y107.274 E191.06512
G1 X73.333 Y107.274 E191.21675
G1 X46.724 Y80.666 E194.579
G1 X46.724 Y78.968 E194.73072
G1 X75.03 Y107.274 E198.30747
G1 X76.727 Y107.274 E198.4591
G1 X46.724 Y77.271 E202.25028
G1 X46.724 Y75.574 E202.40191
G1 X78.424 Y107.274 E206.40753
G1 X80.121 Y107.274 E206.55915
G1 X46.724 Y73.877 E210.7792
G1 X46.724 Y72.18 E210.93083
G1 X81.818 Y107.274 E215.36532
G1 X83.515 Y107.274 E215.51694
G1 X46.724 Y70.483 E220.16586
G1 X46.724 Y68.786 E220.31749
G1 X85.212 Y107.274 E225.18084
G1 X86.909 Y107.274 E225.33247
G1 X46.724 Y67.089 E230.41025
G1 X46.724 Y65.392 E230.56188
G1 X88.606 Y107.274 E235.85409
G1 X90.303 Y107.274 E236.00572
G1 X46.724 Y63.695 E241.51237
G1 X46.724 Y61.998 E241.664
G1 X92 Y107.274 E247.38508
G1 X93.698 Y107.274 E247.5368
G1 X46.724 Y60.301 E253.47238
G1 X46.724 Y58.604 E253.62401
G1 X95.395 Y107.274 E259.77402
G1 X97.092 Y107.274 E259.92565
G1 X46.724 Y56.907 E266.29009
G1 X46.724 Y55.21 E266.44172
G1 X98.789 Y107.274 E273.0206
G1 X100.486 Y107.274 E273.17223
G1 X46.724 Y53.513 E279.96554
G1 X46.724 Y51.816 E280.11717
G1 X102.183 Y107.274 E287.12492
G1 X103.88 Y107.274 E287.27654
G1 X46.724 Y50.119 E294.49872
G1 X46.724 Y48.617 E294.63293
G1 X46.736 Y48.433 E294.6494
G1 X105.565 Y107.262 E302.08304
G1 X105.722 Y107.252 E302.0971
G1 X105.906 Y107.211 E302.11394
G1 X106.022 Y107.176 E302.12477
G1 X106.185 Y107.103 E302.14073
G1 X106.291 Y107.048 E302.1514
G1 X106.525 Y106.869 E302.17772
G1 X106.701 Y106.701 E302.19946
G1 X47.297 Y47.297 E309.70576
G1 X47.473 Y47.13 E309.72744
G1 X47.707 Y46.951 E309.75376
G1 X47.81 Y46.896 E309.7642
G1 X47.977 Y46.823 E309.78048
G1 X48.093 Y46.787 E309.79133
G1 X48.277 Y46.746 E309.80818
G1 X48.433 Y46.736 E309.82215
G1 X107.262 Y105.565 E317.25579
G1 X107.274 Y105.382 E317.27218
G1 X107.274 Y103.88 E317.40638
G1 X50.119 Y46.724 E324.62856
G1 X51.816 Y46.724 E324.78019
G1 X107.274 Y102.183 E331.78793
G1 X107.274 Y100.486 E331.93956
G1 X53.513 Y46.724 E338.73287
G1 X55.21 Y46.724 E338.8845
G1 X107.274 Y98.789 E345.46338
G1 X107.274 Y97.092 E345.61501
G1 X56.907 Y46.724 E351.97945
G1 X58.604 Y46.724 E352.13108
G1 X107.274 Y95.395 E358.28109
G1 X107.274 Y93.698 E358.43272
G1 X60.301 Y46.724 E364.3683
G1 X61.998 Y46.724 E364.51993
G1 X107.274 Y92 E370.24101
G1 X107.274 Y90.303 E370.39264
G1 X63.695 Y46.724 E375.89929
G1 X65.392 Y46.724 E376.05092
G1 X107.274 Y88.606 E381.34313
G1 X107.274 Y86.909 E381.49476
G1 X67.089 Y46.724 E386.57255
G1 X68.786 Y46.724 E386.72417
G1 X107.274 Y85.212 E391.58752
G1 X107.274 Y83.515 E391.73915
G1 X70.483 Y46.724 E396.38807
G1 X72.18 Y46.724 E396.5397
G1 X107.274 Y81.818 E400.97418
G1 X107.274 Y80.121 E401.12581
G1 X73.877 Y46.724 E405.34586
G1 X75.574 Y46.724 E405.49749
G1 X107.274 Y78.424 E409.5031
G1 X107.274 Y76.727 E409.65473
G1 X77.271 Y46.724 E413.44591
G1 X78.968 Y46.724 E413.59754
G1 X107.274 Y75.03 E417.17429
G1 X107.274 Y73.333 E417.32592
G1 X80.666 Y46.724 E420.68818
G1 X82.363 Y46.724 E420.8398
G1 X107.274 Y71.636 E423.98762
G1 X107.274 Y69.939 E424.13925
G1 X84.06 Y46.724 E427.07264
G1 X85.757 Y46.724 E427.22427
G1 X107.274 Y68.242 E429.94322
G1 X107.274 Y66.545 E430.09485
G1 X87.454 Y46.724 E432.59937
G1 X89.151 Y46.724 E432.751
G1 X107.274 Y64.848 E435.04109
G1 X107.274 Y63.15 E435.1928
G1 X90.848 Y46.724 E437.2684
G1 X92.545 Y46.724 E437.42002
G1 X107.274 Y61.453 E439.28118
G1 X107.274 Y59.756 E439.43281
G1 X94.242 Y46.724 E441.07954
G1 X95.939 Y46.724 E441.23116
G1 X107.274 Y58.059 E442.66346
G1 X107.274 Y56.362 E442.81508
G1 X97.636 Y46.724 E444.03294
G1 X99.333 Y46.724 E444.18457
G1 X107.274 Y54.665 E445.188
G1 X107.274 Y52.968 E445.33962
G1 X101.03 Y46.724 E446.12862
G1 X102.727 Y46.724 E446.28024
G1 X107.274 Y51.271 E446.8548
G1 X107.274 Y49.574 E447.00643
G1 X104.424 Y46.724 E447.36656
G1 X105.376 Y46.724 E447.45162
G1 X105.691 Y46.745 E447.47983
G1 X105.86 Y46.773 E447.49513
G1 X106.147 Y46.874 E447.52232
G1 X106.404 Y47.028 E447.54909
G1 X106.57 Y47.173 E447.56878
G1 X106.841 Y47.444 E447.60302
G0 F10500 X106.647 Y47.24
G1 F1350 X106.57 Y47.173 E447.61214
G0 F10500 X48.23 Y46.5
;TIME_ELAPSED:241.793804
;LAYER:-3
G0 X48.23 Y46.5 Z1.46
;TYPE:SUPPORT-INTERFACE
G1 F1800 X48.617 Y46.474 E447.6237
G1 X105.368 Y46.474 E449.31393
G1 X105.621 Y46.487 E449.32148
G0 F10500 X105.715 Y46.5
G1 F1800 X48.23 Y46.5 E451.03358
G1 X48.032 Y46.545 E451.03962
G1 X47.885 Y46.588 E451.04419
G1 X47.713 Y46.665 E451.0498
G1 X47.58 Y46.735 E451.05427
G1 X47.419 Y46.85 E451.06017
G1 X47.315 Y46.935 E451.06417
G1 X47.247 Y47 E451.06697
G1 X106.752 Y47 E452.83923
G1 X106.824 Y47.063 E452.84208
G1 X107.063 Y47.315 E452.85242
G1 X107.151 Y47.423 E452.85657
G1 X107.206 Y47.5 E452.85939
G1 X46.791 Y47.5 E454.65875
G1 X46.715 Y47.619 E454.66296
G1 X46.652 Y47.734 E454.66686
G1 X46.568 Y47.952 E454.67382
G1 X46.554 Y48 E454.67531
G1 X107.445 Y48 E456.48885
G1 X107.454 Y48.032 E456.48984
G1 X107.5 Y48.237 E456.4961
G1 X107.517 Y48.5 E456.50395
G1 X46.483 Y48.5 E458.32175
G1 X46.474 Y48.63 E458.32563
G1 X46.474 Y49 E458.33665
G1 X107.524 Y49 E460.15492
G1 X107.524 Y49.5 E460.16981
G1 X46.474 Y49.5 E461.98809
G1 X46.474 Y50 E462.00298
G1 X107.524 Y50 E463.82126
G1 X107.524 Y50.5 E463.83615
G1 X46.474 Y50.5 E465.65442
G1 X46.474 Y51 E465.66932
G1 X107.524 Y51 E467.48759
G1 X107.524 Y51.5 E467.50248
G1 X46.474 Y51.5 E469.32076
G1 X46.474 Y52 E469.33565
G1 X107.524 Y52 E471.15393
G1 X107.524 Y52.5 E471.16882
G1 X46.474 Y52.5 E472.98709
G1 X46.474 Y53 E473.00198
G1 X107.524 Y53 E474.82026
G1 X107.524 Y53.5 E474.83515
G1 X46.474 Y53.5 E476.65343
G1 X46.474 Y54 E476.66832
G1 X107.524 Y54 E478.48659
G1 X107.524 Y54.5 E478.50149
G1 X46.474 Y54.5 E480.31976
G1 X46.474 Y55 E480.33465
G1 X107.524 Y55 E482.15293
G1 X107.524 Y55.5 E482.16782
G1 X46.474 Y55.5 E483.9861
G1 X46.474 Y56 E484.00099
G1 X107.524 Y56 E485.81926
G1 X107.524 Y56.5 E485.83415
G1 X46.474 Y56.5 E487.65243
G1 X46.474 Y57 E487.66732
G1 X107.524 Y57 E489.4856
G1 X107.524 Y57.5 E489.50049
G1 X46.474 Y57.5 E491.31876
G1 X46.474 Y58 E491.33366
G1 X107.524 Y58 E493.15193
G1 X107.524 Y58.5 E493.16682
G1 X46.474 Y58.5 E494.9851
G1 X46.474 Y59 E494.99999
G1 X107.524 Y59 E496.81827
G1 X107.524 Y59.5 E496.83316
G1 X46.474 Y59.5 E498.65143
G1 X46.474 Y60 E498.66632
G1 X107.524 Y60 E500.4846
G1 X107.524 Y60.5 E500.49949
G1 X46.474 Y60.5 E502.31777
G1 X46.474 Y61 E502.33266
G1 X107.524 Y61 E504.15093
G1 X107.524 Y61.5 E504.16583
G1 X46.474 Y61.5 E505.9841
G1 X46.474 Y62 E505.99899
G1 X107.524 Y62 E507.81727
G1 X107.524 Y62.5 E507.83216
G1 X46.474 Y62.5 E509.65044
G1 X46.474 Y63 E509.66533
G1 X107.524 Y63 E511.4836
G1 X107.524 Y63.5 E511.49849
G1 X46.474 Y63.5 E513.31677
G1 X46.474 Y64 E513.33166
G1 X107.524 Y64 E515.14994
G1 X107.524 Y64.5 E515.16483
G1 X46.474 Y64.5 E516.9831
G1 X46.474 Y65 E516.998
G1 X107.524 Y65 E518.81627
G1 X107.524 Y65.5 E518.83116
G1 X46.474 Y65.5 E520.64944
G1 X46.474 Y66 E520.66433
G1 X107.524 Y66 E522.4826
G1 X107.524 Y66.5 E522.4975
G1 X46.474 Y66.5 E524.31577
G1 X46.474 Y67 E524.33066
G1 X107.524 Y67 E526.14894
G1 X107.524 Y67.5 E526.16383
G1 X46.474 Y67.5 E527.98211
G1 X46.474 Y68 E527.997
G1 X107.524 Y68 E529.81527
G1 X107.524 Y68.5 E529.83017
G1 X46.474 Y68.5 E531.64844
G1 X46.474 Y69 E531.66333
G1 X107.524 Y69 E533.48161
G1 X107.524 Y69.5 E533.4965
G1 X46.474 Y69.5 E535.31477
G1 X46.474 Y70 E535.32967
G1 X107.524 Y70 E537.14794
G1 X107.524 Y70.5 E537.16283
G1 X46.474 Y70.5 E538.98111
G1 X46.474 Y71 E538.996
G1 X107.524 Y71 E540.81428
G1 X107.524 Y71.5 E540.82917
G1 X46.474 Y71.5 E542.64744
G1 X46.474 Y72 E542.66233
G1 X107.524 Y72 E544.48061
G1 X107.524 Y72.5 E544.4955
G1 X46.474 Y72.5 E546.31378
G1 X46.474 Y73 E546.32867
G1 X107.524 Y73 E548.14694
G1 X107.524 Y73.5 E548.16184
G1 X46.474 Y73.5 E549.98011
G1 X46.474 Y74 E549.995
G1 X107.524 Y74 E551.81328
G1 X107.524 Y74.5 E551.82817
G1 X46.474 Y74.5 E553.64645
G1 X46.474 Y75 E553.66134
G1 X107.524 Y75 E555.47961
G1 X107.524 Y75.5 E555.4945
G1 X46.474 Y75.5 E557.31278
G1 X46.474 Y76 E557.32767
G1 X107.524 Y76 E559.14595
G1 X107.524 Y76.5 E559.16084
G1 X46.474 Y76.5 E560.97911
G1 X46.474 Y77 E560.99401
G1 X107.524 Y77 E562.81228
G1 X107.524 Y77.5 E562.82717
G1 X46.474 Y77.5 E564.64545
G1 X46.474 Y78 E564.66034
G1 X107.524 Y78 E566.47862
G1 X107.524 Y78.5 E566.49351
G1 X46.474 Y78.5 E568.31178
G1 X46.474 Y79 E568.32667
G1 X107.524 Y79 E570.14495
G1 X107.524 Y79.5 E570.15984
G1 X46.474 Y79.5 E571.97812
G1 X46.474 Y80 E571.99301
G1 X107.524 Y80 E573.81128
G1 X107.524 Y80.5 E573.82618
G1 X46.474 Y80.5 E575.64445
G1 X46.474 Y81 E575.65934
